X:474
T: Yuanjia tihu ba jiuquan
N: C0000
O: Asien, Ostasien, China, .....
S: Haozi - Artikel, Essen 1991]
N: Die Vorlage enthlt zwei Phrasen. Alles wird wiederholt.
R: Haozi zum Abbau von Steinen]
M: 2/4
L: 1/16
K: A
e2e2B2Bc | B3ce4 | cBA2B4 | c2cBA2AF |
E3FE4 | A2FAF2AF | FABFA4 | B2F2F2AF | E3FE4

@@@ Tune index: 6475
